X: 1
T:Pipe Major Donald MacLean of Lewis
M:6/8
L:1/8
Q:80
C:P/M Donald MacLeod
S:March
K:HP
|: e|
{g}A3/2{d}B/2{e}G{d}A3|
{gef}e3/2d/2g{ef}e3/2d/2B|
{g}A3/2{d}B/2{e}A{g}G2{d}B|  !
{Gdc}d2e{gef}e3/2d/2B|
{g}A3/2{d}B/2{e}G{d}A3|
{gef}e3/2d/2g{ef}e3/2d/2B|  !
{g}G3/2{d}B/2g{ef}e3/2d/2B|
{g}A3{GAG}A2:| |:
{gf}g|  !
{ag}a2e{A}e2{gf}g|
a3/2e/2{A}e{gef}e3/2d/2B|
{g}A3/2{d}B/2{e}A{g}G2{d}B|  !
{Gdc}d2e{gef}e3/2d/2B|1
{ag}a2e{A}e2{gf}g|
a3/2e/2{A}e{gef}e3/2d/2B|2 |  !
{g}A3/2{d}B/2{e}G{d}A3|
{gef}e3/2d/2g{ef}e3/2d/2B|
{g}G3/2{d}B/2g{ef}e3/2d/2B|  !
{g}A3{GAG}A2:| |:
e|
{g}A3/2e/2{A}e{g}d3/2e/2{A}e|
{g}A3/2e/2{A}e{gef}e3/2d/2B|  !
{g}A3/2{d}B/2{e}A{g}G3/2{d}G/2{e}G|
{g}B/2d3/2e{gef}e3/2d/2B|
{g}A3/2e/2{A}e{g}d3/2e/2{A}e|  !
{g}A3/2e/2{A}e{gef}e3/2d/2B|
{g}G3/2{d}B/2g{ef}e3/2d/2B|
{g}A3{GAG}A2:| |:  !
e|
{gAGAG}A2a{g}a3/2g/2a|
g3/2e/2{A}e{gef}e3/2d/2B|
{g}A3/2{d}B/2{e}A{g}G2{d}B|  !
{Gdc}d2e{gef}e3/2d/2B|1
{gAGAG}A2a{g}a3/2g/2a|
g3/2e/2{A}e{gef}e3/2d/2B|2 |  !
{g}A3/2{d}B/2{e}G{d}A3|
{gef}e3/2d/2g{ef}e3/2d/2B|
{g}G3/2{d}B/2g{ef}e3/2d/2B|  !
{g}A3{GAG}A2:|
